X: 37
T: The Horsemen in the Cloud
C: Teton Sioux band 1911-1914
N: Derived from sioux037.krn
O: South Dakota, U.S.A.
N: Teton Sioux Music by Frances Densmore, 1918
Z: transcribed to **kern format by Craig Sapp
L: 1/8
M: 2/4
Q: 1/4=58
K: C clef=bass
%%linebreak <none>
E/ E/ [I:setbarnb 1]| 
E2(E B,/) B,/ | 
B,2B, ]|:  
D/ C/ [I:setbarnb 3]| 
C2(C B,/) B,/ ||  
[M:3/4]B,2B,> B,B,2 ||  
[M:2/4]B,2(E/ B,3/) | 
A, A,A,2- | 
A,3C/ B,/ | 
B,2(B, A,/) A,/ ||  
[M:3/4]A,2A,> A,A,2 ||  
[M:2/4]A,2(A, E,/) E,/ | 
E,2E,2 ||  
[M:3/4]E,4-E, F,/ F,/ ||  
[M:2/4]F,2F,3/ E,/ ||  
[M:3/4]E,2E,> E,E,2 ||  
[M:2/4]E,2(E, B,,/) C,/ | 
A,,2A,,2 | 
A,,4 | 
A,,3 :|]  



